!!!OTL: LASS DICH NUR NICHTS NICHT DAUERN
!!!ARE: Europa, Mitteleuropa, Deutschland
!!!SCT: B0765
!!!YEM: Copyright 1995, estate of Helmut Schaffrath.
**kern
*ICvox
*Ivox
*M4/4
*k[f#]
*G:
{4dd
=1
4.dd
8cc
4b
4a
=2
2a
4g}
{4ee
=3
2dd
4cc#
4cc#
=4
4dd
4a
4r}
{4f#
=5
4.g
8a
4b
4b
=6
4.cc
8dd
4ee}
{8ee
8dd
=7
4.dd
8cc
4b
4a
=8
2dd
4dd}
{8ee
8dd
=9
4dd
4ffn
4ee
4b
=10
[2dd
8dd]
8cc}
{8b
8a
=11
2g
4.b
8a
=12
2g
4r}
==
!!!AGN: Moral - Lied, religioes
!!!ONB: ESAC (Essen Associative Code) Database: BOEHME
!!!AMT: simple quadruple
!!!AIN: vox
!!!EED: Helmut Schaffrath
!!!EEV: 1.0
*-
